;FLAVOR:Marlin
;TIME:840
;Filament used: 0.305639m
;Layer height: 0.2
;MINX:100.169
;MINY:100.163
;MINZ:0.2
;MAXX:134.833
;MAXY:134.834
;MAXZ:15.2
;Generated with Cura_SteamEngine 4.11.0
M140 S50
M105
M190 S50
M104 S200
M105
M109 S200
M82 ;absolute extrusion mode
; Ender 3 Custom Start G-code
G92 E0 ; Reset Extruder
G28 ; Home all axes
G1 Z2.0 F3000 ; Move Z Axis up little to prevent scratching of Heat Bed
G1 X0.1 Y20 Z0.3 F5000.0 ; Move to start position
G1 X0.1 Y200.0 Z0.3 F1500.0 E15 ; Draw the first line
G1 X0.4 Y200.0 Z0.3 F5000.0 ; Move to side a little
G1 X0.4 Y20 Z0.3 F1500.0 E30 ; Draw the second line
G92 E0 ; Reset Extruder
G1 Z2.0 F3000 ; Move Z Axis up little to prevent scratching of Heat Bed
G1 X5 Y20 Z0.3 F5000.0 ; Move over to prevent blob squish
G92 E0
G92 E0
G1 F2700 E-5
;LAYER_COUNT:76
;LAYER:0
M107
G0 F6000 X105.102 Y105.383 Z0.2
;TYPE:SKIRT
G1 F2700 E0
G1 F1200 X105.744 Y104.763 E0.02968
G1 X106.099 Y104.447 E0.04549
G1 X106.402 Y104.187 E0.05877
G1 X106.645 Y103.986 E0.06926
G1 X107.375 Y103.431 E0.09976
G1 X107.687 Y103.214 E0.1124
G1 X108.047 Y102.975 E0.12677
G1 X108.429 Y102.731 E0.14185
G1 X109.18 Y102.292 E0.17078
G1 X109.334 Y102.21 E0.17659
G1 X109.728 Y102.01 E0.19128
G1 X110.062 Y101.849 E0.20361
G1 X110.459 Y101.667 E0.21814
G1 X110.8 Y101.519 E0.2305
G1 X111.213 Y101.35 E0.24534
G1 X111.332 Y101.304 E0.24959
G1 X111.746 Y101.153 E0.26425
G1 X112.001 Y101.066 E0.27321
G1 X112.435 Y100.928 E0.28835
G1 X112.797 Y100.821 E0.30091
G1 X113.195 Y100.712 E0.31463
G1 X113.481 Y100.639 E0.32445
G1 X114.36 Y100.452 E0.35434
G1 X114.849 Y100.369 E0.37084
G1 X115.718 Y100.257 E0.39998
G1 X116.011 Y100.231 E0.40976
G1 X116.418 Y100.203 E0.42333
G1 X116.982 Y100.174 E0.44212
G1 X117.859 Y100.163 E0.47129
G1 X118.035 Y100.168 E0.47714
G1 X118.503 Y100.192 E0.49273
G1 X118.953 Y100.224 E0.50773
G1 X119.532 Y100.28 E0.52708
G1 X119.781 Y100.311 E0.53543
G1 X120.505 Y100.426 E0.55981
G1 X121.034 Y100.528 E0.57773
G1 X121.926 Y100.739 E0.60822
G1 X122.257 Y100.832 E0.61965
G1 X122.625 Y100.942 E0.63243
G1 X123.02 Y101.068 E0.64622
G1 X123.885 Y101.385 E0.67686
G1 X124.327 Y101.568 E0.69277
G1 X124.705 Y101.732 E0.70647
G1 X124.995 Y101.865 E0.71708
G1 X125.825 Y102.29 E0.7481
G1 X126.175 Y102.488 E0.76147
G1 X126.907 Y102.94 E0.79009
G1 X127.272 Y103.186 E0.80473
G1 X127.631 Y103.439 E0.81933
G1 X127.845 Y103.596 E0.82816
G1 X128.17 Y103.844 E0.84176
G1 X128.329 Y103.97 E0.84851
G1 X128.689 Y104.268 E0.86405
G1 X128.976 Y104.516 E0.87667
G1 X129.287 Y104.795 E0.89056
G1 X129.555 Y105.045 E0.90275
G1 X130.161 Y105.656 E0.93138
G1 X130.238 Y105.74 E0.93517
G1 X130.531 Y106.074 E0.94994
G1 X130.945 Y106.564 E0.97128
G1 X131.521 Y107.308 E1.00257
G1 X131.647 Y107.486 E1.00983
G1 X131.869 Y107.811 E1.02292
G1 X132.084 Y108.139 E1.03596
G1 X132.346 Y108.56 E1.05245
G1 X132.461 Y108.754 E1.05996
G1 X132.653 Y109.091 E1.07286
G1 X132.813 Y109.384 E1.08396
G1 X133.03 Y109.802 E1.09962
G1 X133.179 Y110.105 E1.11085
G1 X133.521 Y110.874 E1.13885
G1 X133.685 Y111.284 E1.15353
G1 X133.86 Y111.751 E1.17012
G1 X133.922 Y111.929 E1.17639
G1 X134.173 Y112.752 E1.20501
G1 X134.287 Y113.186 E1.21993
G1 X134.384 Y113.585 E1.23359
G1 X134.438 Y113.827 E1.24184
G1 X134.529 Y114.277 E1.25711
G1 X134.591 Y114.622 E1.26876
G1 X134.653 Y115.007 E1.28173
G1 X134.697 Y115.314 E1.29205
G1 X134.788 Y116.216 E1.3222
G1 X134.806 Y116.516 E1.3322
G1 X134.824 Y116.976 E1.34751
G1 X134.833 Y117.474 E1.36408
G1 X134.816 Y118.325 E1.39239
G1 X134.791 Y118.746 E1.40641
G1 X134.697 Y119.667 E1.43721
G1 X134.634 Y120.103 E1.45186
G1 X134.568 Y120.506 E1.46544
G1 X134.526 Y120.736 E1.47322
G1 X134.434 Y121.185 E1.48846
G1 X134.361 Y121.508 E1.49947
G1 X134.245 Y121.975 E1.51548
G1 X134.121 Y122.413 E1.53062
G1 X133.97 Y122.905 E1.54774
G1 X133.66 Y123.782 E1.57867
G1 X133.623 Y123.874 E1.58197
G1 X133.46 Y124.257 E1.59582
G1 X133.271 Y124.68 E1.61123
G1 X133.074 Y125.098 E1.6266
G1 X132.939 Y125.369 E1.63667
G1 X132.75 Y125.731 E1.65025
G1 X132.582 Y126.039 E1.66192
G1 X132.34 Y126.46 E1.67807
G1 X132.224 Y126.652 E1.68553
G1 X131.745 Y127.379 E1.71449
G1 X131.572 Y127.62 E1.72435
G1 X131.324 Y127.952 E1.73814
G1 X130.959 Y128.422 E1.75793
G1 X130.355 Y129.135 E1.78901
G1 X130.14 Y129.368 E1.79955
G1 X129.584 Y129.928 E1.8258
G1 X129.307 Y130.188 E1.83844
G1 X128.926 Y130.53 E1.85546
G1 X128.692 Y130.73 E1.8657
G1 X128.37 Y130.995 E1.87957
G1 X128.054 Y131.245 E1.89297
G1 X127.664 Y131.539 E1.90922
G1 X127.542 Y131.627 E1.91422
G1 X127.228 Y131.846 E1.92695
G1 X126.892 Y132.071 E1.9404
G1 X126.139 Y132.532 E1.96977
G1 X125.792 Y132.726 E1.98299
G1 X124.985 Y133.135 E2.01308
G1 X124.568 Y133.325 E2.02833
G1 X124.187 Y133.49 E2.04213
G1 X124.002 Y133.566 E2.04879
G1 X123.578 Y133.73 E2.06391
G1 X123.344 Y133.815 E2.07219
G1 X122.944 Y133.951 E2.08624
G1 X122.557 Y134.075 E2.09976
G1 X122.082 Y134.216 E2.11624
G1 X121.802 Y134.292 E2.12589
G1 X121.009 Y134.476 E2.15296
G1 X120.74 Y134.528 E2.16207
G1 X120.296 Y134.605 E2.17706
G1 X119.76 Y134.686 E2.19509
G1 X118.868 Y134.783 E2.22494
G1 X118.722 Y134.793 E2.2298
G1 X118.315 Y134.814 E2.24336
G1 X117.678 Y134.834 E2.26455
G1 X116.78 Y134.825 E2.29442
G1 X116.641 Y134.818 E2.29905
G1 X116.177 Y134.785 E2.31452
G1 X115.66 Y134.737 E2.33179
G1 X114.804 Y134.623 E2.36052
G1 X114.503 Y134.571 E2.37068
G1 X114.088 Y134.491 E2.38473
G1 X113.773 Y134.424 E2.39544
G1 X113.339 Y134.323 E2.41026
G1 X113.108 Y134.264 E2.41819
G1 X112.653 Y134.137 E2.43391
G1 X112.358 Y134.048 E2.44415
G1 X111.96 Y133.92 E2.45806
G1 X111.701 Y133.831 E2.46717
G1 X111.27 Y133.672 E2.48245
G1 X111.068 Y133.593 E2.48966
G1 X110.665 Y133.427 E2.50416
G1 X110.281 Y133.259 E2.5181
G1 X109.501 Y132.88 E2.54694
G1 X109.344 Y132.796 E2.55286
G1 X108.965 Y132.584 E2.56731
G1 X108.493 Y132.307 E2.58551
G1 X107.755 Y131.833 E2.61468
G1 X107.502 Y131.656 E2.62495
G1 X107.146 Y131.396 E2.63962
G1 X106.874 Y131.189 E2.65098
G1 X106.483 Y130.878 E2.6676
G1 X106.246 Y130.68 E2.67787
G1 X105.945 Y130.418 E2.69115
G1 X105.727 Y130.222 E2.7009
G1 X105.094 Y129.606 E2.73027
G1 X104.915 Y129.417 E2.73893
G1 X104.629 Y129.103 E2.75306
G1 X104.381 Y128.82 E2.76557
G1 X104.099 Y128.484 E2.78016
G1 X103.901 Y128.239 E2.79064
G1 X103.634 Y127.895 E2.80512
G1 X103.494 Y127.707 E2.81292
G1 X103.23 Y127.337 E2.82804
G1 X103.172 Y127.252 E2.83146
G1 X102.951 Y126.915 E2.84486
G1 X102.762 Y126.615 E2.85666
G1 X102.494 Y126.167 E2.87402
G1 X102.3 Y125.824 E2.88713
G1 X101.906 Y125.059 E2.91575
G1 X101.718 Y124.656 E2.93054
G1 X101.538 Y124.249 E2.94534
G1 X101.464 Y124.072 E2.95172
G1 X101.329 Y123.732 E2.96389
G1 X101.203 Y123.4 E2.9757
G1 X100.899 Y122.48 E3.00792
G1 X100.759 Y121.983 E3.0251
G1 X100.666 Y121.631 E3.03721
G1 X100.599 Y121.359 E3.04652
G1 X100.414 Y120.437 E3.0778
G1 X100.339 Y119.96 E3.09386
G1 X100.239 Y119.115 E3.12216
G1 X100.203 Y118.658 E3.13741
G1 X100.169 Y117.775 E3.1668
G1 X100.17 Y117.19 E3.18626
G1 X100.206 Y116.317 E3.21532
G1 X100.248 Y115.801 E3.23254
G1 X100.355 Y114.924 E3.26192
G1 X100.421 Y114.519 E3.27557
G1 X100.605 Y113.626 E3.3059
G1 X100.718 Y113.173 E3.32142
G1 X100.821 Y112.789 E3.33465
G1 X100.872 Y112.612 E3.34077
G1 X101.006 Y112.179 E3.35585
G1 X101.078 Y111.963 E3.36342
G1 X101.219 Y111.568 E3.37737
G1 X101.365 Y111.18 E3.39116
G1 X101.549 Y110.721 E3.40761
G1 X101.747 Y110.28 E3.42369
G1 X101.929 Y109.896 E3.43782
G1 X102.143 Y109.469 E3.45371
G1 X102.227 Y109.31 E3.45969
G1 X102.416 Y108.966 E3.47274
G1 X102.608 Y108.632 E3.48555
G1 X103.077 Y107.888 E3.51481
G1 X103.272 Y107.604 E3.52626
G1 X103.514 Y107.265 E3.54012
G1 X103.755 Y106.941 E3.55355
G1 X104.341 Y106.219 E3.58448
G1 X104.67 Y105.847 E3.60099
G1 X104.954 Y105.538 E3.61495
G1 X105.102 Y105.383 E3.62208
G0 F6000 X105.392 Y105.659
G1 F1200 X106.01 Y105.061 E3.65068
G1 X106.365 Y104.745 E3.66649
G1 X106.657 Y104.495 E3.67928
G1 X106.9 Y104.294 E3.68976
G1 X107.604 Y103.76 E3.71915
G1 X107.916 Y103.543 E3.73179
G1 X108.262 Y103.312 E3.74563
G1 X108.644 Y103.068 E3.76071
G1 X109.368 Y102.645 E3.7886
G1 X109.522 Y102.563 E3.7944
G1 X109.901 Y102.37 E3.80855
G1 X110.235 Y102.209 E3.82088
G1 X110.618 Y102.034 E3.83488
G1 X110.959 Y101.886 E3.84725
G1 X111.357 Y101.723 E3.86155
G1 X111.476 Y101.677 E3.86579
G1 X111.875 Y101.532 E3.87991
G1 X112.13 Y101.445 E3.88888
G1 X112.548 Y101.312 E3.90347
G1 X112.91 Y101.205 E3.91602
G1 X113.293 Y101.099 E3.92924
G1 X113.579 Y101.026 E3.93906
G1 X114.427 Y100.846 E3.96789
G1 X114.916 Y100.763 E3.98439
G1 X115.753 Y100.655 E4.01246
G1 X116.046 Y100.629 E4.02224
G1 X116.439 Y100.602 E4.03534
G1 X117.003 Y100.573 E4.05412
G1 X117.848 Y100.563 E4.08223
G1 X118.024 Y100.568 E4.08809
G1 X118.475 Y100.591 E4.10311
G1 X118.925 Y100.623 E4.11811
G1 X119.483 Y100.677 E4.13676
G1 X119.732 Y100.708 E4.1451
G1 X120.429 Y100.819 E4.16858
G1 X120.958 Y100.921 E4.1865
G1 X121.818 Y101.124 E4.21589
G1 X122.149 Y101.217 E4.22732
G1 X122.503 Y101.323 E4.23961
G1 X122.898 Y101.449 E4.2534
G1 X123.732 Y101.754 E4.28294
G1 X124.174 Y101.937 E4.29885
G1 X124.538 Y102.096 E4.31206
G1 X124.828 Y102.229 E4.32267
G1 X125.628 Y102.638 E4.35256
G1 X125.978 Y102.836 E4.36593
G1 X126.683 Y103.272 E4.3935
G1 X127.048 Y103.518 E4.40814
G1 X127.394 Y103.761 E4.4222
G1 X127.608 Y103.918 E4.43103
G1 X127.921 Y104.157 E4.44413
G1 X128.08 Y104.283 E4.45088
G1 X128.428 Y104.571 E4.4659
G1 X128.715 Y104.819 E4.47852
G1 X129.015 Y105.088 E4.49192
G1 X129.283 Y105.338 E4.50411
G1 X129.866 Y105.926 E4.53165
G1 X129.943 Y106.01 E4.53544
G1 X130.226 Y106.332 E4.5497
G1 X130.64 Y106.822 E4.57103
G1 X131.195 Y107.539 E4.60119
G1 X131.321 Y107.717 E4.60844
G1 X131.534 Y108.03 E4.62104
G1 X131.749 Y108.358 E4.63408
G1 X132.002 Y108.764 E4.64999
G1 X132.117 Y108.958 E4.65749
G1 X132.302 Y109.283 E4.66993
G1 X132.462 Y109.576 E4.68103
G1 X132.671 Y109.978 E4.6961
G1 X132.82 Y110.281 E4.70733
G1 X133.15 Y111.022 E4.73431
G1 X133.314 Y111.432 E4.749
G1 X133.482 Y111.882 E4.76498
G1 X133.544 Y112.06 E4.77124
G1 X133.786 Y112.854 E4.79885
G1 X133.9 Y113.288 E4.81378
G1 X133.994 Y113.672 E4.82693
G1 X134.048 Y113.914 E4.83517
G1 X134.135 Y114.348 E4.8499
G1 X134.197 Y114.693 E4.86155
G1 X134.257 Y115.064 E4.87405
G1 X134.301 Y115.371 E4.88437
G1 X134.389 Y116.24 E4.91342
G1 X134.407 Y116.54 E4.92342
G1 X134.424 Y116.983 E4.93816
G1 X134.433 Y117.481 E4.95473
G1 X134.416 Y118.301 E4.98201
G1 X134.391 Y118.722 E4.99603
G1 X134.301 Y119.61 E5.02572
G1 X134.238 Y120.046 E5.04037
G1 X134.175 Y120.434 E5.05345
G1 X134.133 Y120.664 E5.06122
G1 X134.044 Y121.097 E5.07592
G1 X133.971 Y121.42 E5.08694
G1 X133.886 Y121.771 E5.09895
G1 X133.859 Y121.874 E5.10249
G1 X133.738 Y122.296 E5.11709
G1 X133.587 Y122.788 E5.13421
G1 X133.288 Y123.633 E5.16402
G1 X133.095 Y124.094 E5.18065
G1 X132.906 Y124.517 E5.19606
G1 X132.716 Y124.919 E5.21084
G1 X132.581 Y125.19 E5.22091
G1 X132.399 Y125.54 E5.23403
G1 X132.231 Y125.848 E5.2457
G1 X131.998 Y126.253 E5.26124
G1 X131.882 Y126.445 E5.26871
G1 X131.42 Y127.145 E5.2966
G1 X131.247 Y127.386 E5.30647
G1 X131.008 Y127.707 E5.31978
G1 X130.643 Y128.177 E5.33957
G1 X130.061 Y128.863 E5.36949
G1 X129.846 Y129.096 E5.38004
G1 X129.31 Y129.637 E5.40537
G1 X129.033 Y129.897 E5.418
G1 X128.666 Y130.226 E5.4344
G1 X128.432 Y130.426 E5.44463
G1 X128.122 Y130.681 E5.45799
G1 X127.806 Y130.931 E5.47139
G1 X127.43 Y131.215 E5.48706
G1 X127.308 Y131.303 E5.49206
G1 X127.005 Y131.514 E5.50434
G1 X126.669 Y131.739 E5.51779
G1 X125.944 Y132.183 E5.54607
G1 X125.597 Y132.377 E5.55929
G1 X124.819 Y132.771 E5.5883
G1 X124.402 Y132.961 E5.60354
G1 X124.035 Y133.12 E5.61684
G1 X123.85 Y133.196 E5.62349
G1 X123.441 Y133.354 E5.63808
G1 X123.207 Y133.439 E5.64636
G1 X122.822 Y133.57 E5.65988
G1 X122.435 Y133.694 E5.6734
G1 X121.978 Y133.83 E5.68926
G1 X121.698 Y133.906 E5.69891
G1 X120.933 Y134.083 E5.72502
G1 X120.664 Y134.135 E5.73414
G1 X120.236 Y134.209 E5.74858
G1 X119.7 Y134.29 E5.76661
G1 X118.84 Y134.384 E5.79539
G1 X118.694 Y134.394 E5.80025
G1 X118.303 Y134.414 E5.81328
G1 X117.666 Y134.434 E5.83447
G1 X116.8 Y134.426 E5.86328
G1 X116.661 Y134.419 E5.86791
G1 X116.214 Y134.387 E5.88281
G1 X115.697 Y134.339 E5.90008
G1 X114.873 Y134.229 E5.92773
G1 X114.572 Y134.177 E5.93789
G1 X114.171 Y134.1 E5.95147
G1 X113.856 Y134.033 E5.96218
G1 X113.438 Y133.935 E5.97646
G1 X113.207 Y133.876 E5.98439
G1 X112.768 Y133.754 E5.99955
G1 X112.473 Y133.665 E6.0098
G1 X112.09 Y133.542 E6.02317
G1 X111.831 Y133.453 E6.03228
G1 X111.415 Y133.3 E6.04703
G1 X111.213 Y133.221 E6.05424
G1 X110.825 Y133.06 E6.06821
G1 X110.441 Y132.892 E6.08215
G1 X109.689 Y132.527 E6.10995
G1 X109.532 Y132.443 E6.11588
G1 X109.168 Y132.239 E6.12976
G1 X108.696 Y131.962 E6.14796
G1 X107.985 Y131.505 E6.17607
G1 X107.732 Y131.328 E6.18634
G1 X107.389 Y131.078 E6.20046
G1 X107.117 Y130.871 E6.21182
G1 X106.74 Y130.571 E6.22785
G1 X106.503 Y130.373 E6.23812
G1 X106.212 Y130.121 E6.25092
G1 X105.994 Y129.925 E6.26067
G1 X105.385 Y129.331 E6.28897
G1 X105.206 Y129.142 E6.29763
G1 X104.93 Y128.839 E6.31126
G1 X104.682 Y128.556 E6.32377
G1 X104.41 Y128.233 E6.33782
G1 X104.212 Y127.988 E6.3483
G1 X103.954 Y127.656 E6.36228
G1 X103.814 Y127.468 E6.37008
G1 X103.56 Y127.112 E6.38462
G1 X103.502 Y127.027 E6.38805
G1 X103.289 Y126.702 E6.40097
G1 X103.1 Y126.402 E6.41276
G1 X102.843 Y125.97 E6.42948
G1 X102.649 Y125.627 E6.44259
G1 X102.269 Y124.89 E6.47017
G1 X102.081 Y124.487 E6.48496
G1 X101.907 Y124.095 E6.49922
G1 X101.833 Y123.918 E6.5056
G1 X101.703 Y123.59 E6.51734
G1 X101.577 Y123.258 E6.52915
G1 X101.284 Y122.371 E6.56022
G1 X101.144 Y121.874 E6.57739
G1 X101.055 Y121.535 E6.58905
G1 X100.988 Y121.263 E6.59837
G1 X100.809 Y120.374 E6.62853
G1 X100.734 Y119.897 E6.64459
G1 X100.638 Y119.083 E6.67185
G1 X100.602 Y118.626 E6.6871
G1 X100.569 Y117.776 E6.71539
G1 X100.57 Y117.191 E6.73485
G1 X100.605 Y116.349 E6.76288
G1 X100.647 Y115.833 E6.78009
G1 X100.75 Y114.988 E6.80841
G1 X100.816 Y114.583 E6.82206
G1 X100.993 Y113.722 E6.85129
G1 X101.106 Y113.269 E6.86682
G1 X101.205 Y112.9 E6.87953
G1 X101.256 Y112.723 E6.88565
G1 X101.386 Y112.306 E6.90018
G1 X101.458 Y112.09 E6.90775
G1 X101.593 Y111.709 E6.9212
G1 X101.739 Y111.321 E6.93499
G1 X101.944 Y110.815 E6.95315
G1 X102.108 Y110.451 E6.96642
G1 X102.29 Y110.067 E6.98056
G1 X102.497 Y109.656 E6.99586
G1 X102.581 Y109.497 E7.00184
G1 X102.763 Y109.165 E7.01444
G1 X102.955 Y108.831 E7.02725
G1 X103.407 Y108.114 E7.05544
G1 X103.602 Y107.83 E7.0669
G1 X103.835 Y107.504 E7.08023
G1 X104.076 Y107.18 E7.09366
G1 X104.641 Y106.484 E7.12347
G1 X104.97 Y106.112 E7.13999
G1 X105.244 Y105.814 E7.15346
G1 X105.392 Y105.659 E7.16058
G0 F6000 X105.681 Y105.935
G1 F1200 X106.276 Y105.36 E7.1881
G1 X106.631 Y105.044 E7.20391
G1 X106.912 Y104.803 E7.21622
G1 X107.155 Y104.602 E7.22671
G1 X107.832 Y104.088 E7.25499
G1 X108.144 Y103.871 E7.26763
G1 X108.477 Y103.649 E7.28094
G1 X108.859 Y103.405 E7.29601
G1 X109.556 Y102.998 E7.32286
G1 X109.71 Y102.916 E7.32866
G1 X110.075 Y102.731 E7.34227
G1 X110.409 Y102.57 E7.3546
G1 X110.777 Y102.401 E7.36807
G1 X111.118 Y102.253 E7.38044
G1 X111.501 Y102.096 E7.3942
G1 X111.62 Y102.05 E7.39845
G1 X112.004 Y101.91 E7.41204
G1 X112.259 Y101.823 E7.421
G1 X112.662 Y101.695 E7.43507
G1 X113.024 Y101.588 E7.44762
G1 X113.392 Y101.487 E7.46031
G1 X113.678 Y101.414 E7.47013
G1 X114.494 Y101.241 E7.49787
G1 X114.983 Y101.158 E7.51437
G1 X115.788 Y101.054 E7.54137
G1 X116.081 Y101.028 E7.55115
G1 X116.459 Y101.001 E7.56376
G1 X117.023 Y100.972 E7.58254
G1 X117.837 Y100.963 E7.60961
G1 X118.013 Y100.968 E7.61547
G1 X118.447 Y100.99 E7.62992
G1 X118.897 Y101.022 E7.64493
G1 X119.433 Y101.074 E7.66284
G1 X119.682 Y101.105 E7.67119
G1 X120.353 Y101.211 E7.69378
G1 X120.882 Y101.313 E7.7117
G1 X121.71 Y101.509 E7.74
G1 X122.041 Y101.602 E7.75143
G1 X122.382 Y101.704 E7.76327
G1 X122.777 Y101.83 E7.77706
G1 X123.579 Y102.124 E7.80547
G1 X124.021 Y102.307 E7.82138
G1 X124.371 Y102.46 E7.83409
G1 X124.661 Y102.593 E7.8447
G1 X125.431 Y102.986 E7.87345
G1 X125.781 Y103.184 E7.88683
G1 X126.46 Y103.604 E7.91338
